X: 1
T: Paul Mac's Reel
C: Jerry Holland
R: reel
Z: 2021 John Chambers <jc:trillian.mit.edu>
S: handout for Anne Hooper's 2021-5-2 zoom session (handwritten)
M: C
L: 1/8
K: D
B |\
"D"AF F/F/F "(A)"(ED)DE | "D"FAdf "G"edBd | "D"AF F/F/F "(F#)"(ED)DE | "Em"FAdF "A7"EFGB |
"D"AF F/F/F "(A)"(ED)DE | "D"FAdf "G"edBd | "D"fedB "(F#)"ABde | "Em"dBAF "A7"EFG :|
|: A |\
"D"df f/f/f "(A)"(ef)df | "D"ab"^m"af "A"edef | "D"df f/f/f "(F#)"(ef)dB | "Em"AFDE "A7"FEEA |
"D"df f/f/f "(A)"(ef)df | "D"ab"^m"af "A"edef | "G"gefd "D(F#)"edBe | "Em"dBAF "A7"EFG :|
%%text The "m" ornament is really just "cutting" the a note with a very fast b.
